logos/khan_academy-icon.svg

<?xml version="1.0" encoding="UTF-8"?>
<svg width="256px" height="276px" viewBox="0 0 256 276" version="1.1" xmlns="http://www.w3.org/2000/svg" xmlns:xlink="http://www.w3.org/1999/xlink" preserveAspectRatio="xMidYMid">
    <g>
        <path d="M16.2524996,57.1547059 C6.70984964,63.1945026 0.660185591,73.4605992 0,84.7347053 L0,191.114703 C0.660185591,202.388809 6.70984964,212.654905 16.2524996,218.694702 L111.698997,272.081701 C121.951702,277.105311 133.951292,277.105311 144.203997,272.081701 L239.748994,218.694702 C249.291644,212.654905 255.341308,202.388809 256.001494,191.114703 L256.001494,84.7347053 C255.341308,73.4605992 249.291644,63.1945026 239.748994,57.1547059 L144.302497,3.76770718 C134.049792,-1.25590239 122.050202,-1.25590239 111.797497,3.76770718 L16.2524996,57.1547059 Z" fill="#14BF96"></path>
        <path d="M226.057495,111.526705 C173.064496,111.526705 133.467497,155.457704 133.467497,209.337202 L133.467497,211.602702 L122.829497,211.602702 L122.829497,209.337202 C122.829497,155.457704 83.4294981,111.723705 30.0411256,111.526705 C30.0411256,114.875705 30.0411256,118.323205 30.0411256,121.376704 C29.8270913,162.138126 54.9627136,198.741876 93.0824978,213.178702 C104.410162,217.33234 116.378824,219.466029 128.443997,219.482702 C140.605396,219.466096 152.67111,217.332931 164.100996,213.178702 C202.16354,198.686189 227.244797,162.10445 227.04371,121.376704 C226.549995,118.224705 226.352995,114.875705 226.057495,111.526705 Z" fill="#FFFFFF"></path>
        <circle fill="#FFFFFF" cx="128.049997" cy="86.1137053" r="29.5499993"></circle>
    </g>
</svg>

<svg preserveAspectRatio="xMidYMid" viewBox="0 0 256 276" xmlns="http://www.w3.org/2000/svg">
  <path fill="#14BF96" d="M16.252 57.155A35.066 35.066 0 0 0 0 84.735v106.38a35.066 35.066 0 0 0 16.252 27.58l95.447 53.387a36.937 36.937 0 0 0 32.505 0l95.545-53.387a35.066 35.066 0 0 0 16.252-27.58V84.735a35.066 35.066 0 0 0-16.252-27.58L144.302 3.768a36.938 36.938 0 0 0-32.505 0L16.252 57.155Z"/>
  <path fill="#FFF" d="M226.057 111.527c-52.993 0-92.59 43.93-92.59 97.81v2.266H122.83v-2.266c0-53.88-39.4-97.613-92.788-97.81v9.85c-.214 40.761 24.922 77.365 63.041 91.802a103.13 103.13 0 0 0 35.362 6.304 104.804 104.804 0 0 0 35.657-6.304c38.063-14.493 63.144-51.075 62.943-91.802-.494-3.152-.691-6.501-.987-9.85Z"/>
  <circle cx="128.05" cy="86.114" r="29.55" fill="#FFF"/>
</svg>
